modules/hawcons-filled/icons/icon-33-sunset.svg

<?xml version="1.0" encoding="UTF-8" standalone="no"?>
<svg width="32px" height="32px" viewBox="0 0 32 32" version="1.1" xmlns="http://www.w3.org/2000/svg" xmlns:xlink="http://www.w3.org/1999/xlink" xmlns:sketch="http://www.bohemiancoding.com/sketch/ns">
    <!-- Generator: Sketch 3.0.3 (7891) - http://www.bohemiancoding.com/sketch -->
    <title>icon 33 sunset</title>
    <desc>Created with Sketch.</desc>
    <defs></defs>
    <g id="Page-1" stroke="none" stroke-width="1" fill="none" fill-rule="evenodd" sketch:type="MSPage">
        <g id="icon-33-sunset" sketch:type="MSArtboardGroup" fill="#929292">
            <path d="M20.7929675,17 C20.1400387,14.6914951 18.0175544,13 15.5,13 C12.9824456,13 10.8599613,14.6914951 10.2070325,17 L20.7929675,17 L20.7929675,17 Z M15.5,9 C15.2238576,9 15,9.2157526 15,9.49538898 L15,11.504611 C15,11.7782068 15.2319336,12 15.5,12 C15.7761424,12 16,11.7842474 16,11.504611 L16,9.49538898 C16,9.2217932 15.7680664,9 15.5,9 L15.5,9 Z M22.2380578,11.7909949 C22.0427957,11.5957328 21.7319443,11.5900017 21.5342115,11.7877344 L20.113477,13.208469 C19.9200156,13.4019304 19.9271859,13.7227637 20.1167375,13.9123153 C20.3119996,14.1075774 20.622851,14.1133085 20.8205838,13.9155758 L22.2413183,12.4948412 C22.4347797,12.3013798 22.4276094,11.9805465 22.2380578,11.7909949 L22.2380578,11.7909949 Z M8.76194219,11.7909949 C8.56668005,11.9862571 8.56094893,12.2971084 8.75868171,12.4948412 L10.1794162,13.9155758 C10.3728777,14.1090372 10.693711,14.1018668 10.8832625,13.9123153 C11.0785247,13.7170531 11.0842558,13.4062018 10.886523,13.208469 L9.46578849,11.7877344 C9.27232706,11.594273 8.95149377,11.6014434 8.76194219,11.7909949 L8.76194219,11.7909949 Z M6.5082041,19 C6.22753073,19 6,19.2319336 6,19.5 L6,19.5 C6,19.7761424 6.22661515,20 6.5082041,20 L24.4917959,20 C24.7724693,20 25,19.7680664 25,19.5 L25,19.5 C25,19.2238576 24.7733849,19 24.4917959,19 L6.5082041,19 L6.5082041,19 Z" id="sunset" sketch:type="MSShapeGroup"></path>
        </g>
    </g>
</svg>

<svg width="32" height="32" viewBox="0 0 32 32" xmlns="http://www.w3.org/2000/svg"><path d="M20.793 17a5.502 5.502 0 0 0-10.586 0h10.586zM15.5 9c-.276 0-.5.216-.5.495v2.01c0 .273.232.495.5.495.276 0 .5-.216.5-.495v-2.01A.503.503 0 0 0 15.5 9zm6.738 2.791a.494.494 0 0 0-.704-.003l-1.42 1.42a.503.503 0 0 0 .003.704.494.494 0 0 0 .704.004l1.42-1.421a.503.503 0 0 0-.003-.704zm-13.476 0a.494.494 0 0 0-.003.704l1.42 1.42a.503.503 0 0 0 .704-.003.494.494 0 0 0 .004-.704l-1.421-1.42a.503.503 0 0 0-.704.003zM6.508 19a.51.51 0 0 0-.508.5c0 .276.227.5.508.5h17.984a.51.51 0 0 0 .508-.5c0-.276-.227-.5-.508-.5H6.508z" fill="#929292" fill-rule="evenodd"/></svg>
